X:20025
T:Three Rusty Swords
T:Dusty Miller
R:Triple Hornpipe
C:Trad.
O:England
Z:Paul Hardy's Session Tunebook 2015 (see www.paulhardy.net). Creative Commons cc by-nc-sa licenced.
M:3/2
L:1/8
Q:3/8=130
K:G
%%MIDI beatstring fpppmpppmppp
%%MIDI gchord czfzczfzczfz
"G"GABc d2G2d2G2|"D"F2A4c2B2A2|"G"GABc d2G2B4|"D"D2G4"G"B2A2G2:|
|:"G"g4"D"f4"C"e4|"G"f2d2-d2f2e2 d2|"C"c4"G"B4"D"A4|"G"B2G2-G2B2A2G2:|
"G"B3c d2B2A2G2|"D"F2A2-A2c2B2A2|"G"B3c d2B2A2G2|"D"D2G2-G2"G"B2A2G2:|
|:"G"B3c d2e2f2g2|"Am"a2A2-A2"D"c2B2A2|"G"B3c d2e2"Bm"f2ef|"G"g3a g2B2 A2G2:|

